X: 1
T: Liechtensteiner Polka
C: Ed.Kotscher, R.Lindt
M: 2/4
L: 1/8
K: F
"C7"[B2E2]\
[| "F"[AF] z3 | z[AF] [^GE][AF] |\
  [BG][AF] [^GE][AF] | "C7"[cE] [c2E2]"G7"[=BF] |\
  "C7"[_B2E2] z2 | "C7"[cE] [c2E2] "G7"[=BF] |\
  "C7"[_B2E2] z2 |
